icons/svg/tourist_colored/firepit.svg

<?xml version="1.0" encoding="UTF-8" standalone="no"?>
<!-- Created with Inkscape (http://www.inkscape.org/) -->

<svg
   xmlns:dc="http://purl.org/dc/elements/1.1/"
   xmlns:cc="http://creativecommons.org/ns#"
   xmlns:rdf="http://www.w3.org/1999/02/22-rdf-syntax-ns#"
   xmlns:svg="http://www.w3.org/2000/svg"
   xmlns="http://www.w3.org/2000/svg"
   xmlns:sodipodi="http://sodipodi.sourceforge.net/DTD/sodipodi-0.dtd"
   xmlns:inkscape="http://www.inkscape.org/namespaces/inkscape"
   version="1.0"
   width="580"
   height="580"
   id="svg2"
   sodipodi:version="0.32"
   inkscape:version="0.91 r13725"
   sodipodi:docname="firepit.svg"
   inkscape:output_extension="org.inkscape.output.svg.inkscape">
  <metadata
     id="metadata2975">
    <rdf:RDF>
      <cc:Work
         rdf:about="">
        <dc:format>image/svg+xml</dc:format>
        <dc:type
           rdf:resource="http://purl.org/dc/dcmitype/StillImage" />
        <cc:license
           rdf:resource="http://web.resource.org/cc/PublicDomain" />
        <dc:language>en</dc:language>
      </cc:Work>
    </rdf:RDF>
  </metadata>
  <sodipodi:namedview
     inkscape:window-height="1006"
     inkscape:window-width="1920"
     inkscape:pageshadow="2"
     inkscape:pageopacity="0.0"
     guidetolerance="10.0"
     gridtolerance="10.0"
     objecttolerance="10.0"
     borderopacity="1.0"
     bordercolor="#666666"
     pagecolor="#ffffff"
     id="base"
     inkscape:zoom="0.46083856"
     inkscape:cx="-61.648777"
     inkscape:cy="396.01788"
     inkscape:window-x="1920"
     inkscape:window-y="0"
     inkscape:current-layer="svg2"
     showgrid="false"
     inkscape:window-maximized="1" />
  <defs
     id="defs4">
    <inkscape:perspective
       sodipodi:type="inkscape:persp3d"
       inkscape:vp_x="0 : 290 : 1"
       inkscape:vp_y="0 : 1000 : 0"
       inkscape:vp_z="580 : 290 : 1"
       inkscape:persp3d-origin="290 : 193.33333 : 1"
       id="perspective2441" />
    <inkscape:perspective
       id="perspective3452"
       inkscape:persp3d-origin="30 : 20 : 1"
       inkscape:vp_z="60 : 30 : 1"
       inkscape:vp_y="0 : 1000 : 0"
       inkscape:vp_x="0 : 30 : 1"
       sodipodi:type="inkscape:persp3d" />
    <symbol
       viewBox="244.5 110 489 219.9"
       id="symbol-university">
      <path
         id="path4460"
         d="M79,43l57,119c0,0,21-96,104-96s124,106,124,106l43-133l82-17L0,17L79,43z" />
      <path
         id="path4462"
         d="M94,176l-21,39"
         stroke-width="20"
         stroke="#000000"
         fill="none" />
      <path
         id="path4464"
         d="M300,19c0,10.5-22.6,19-50.5,19S199,29.5,199,19s22.6-19,50.5-19S300,8.5,300,19z" />
      <path
         id="path4466"
         d="M112,216l-16-38L64,88c0,0-9-8-4-35s16-24,16-24"
         stroke-width="20"
         stroke="#000000"
         ill="none" />
    </symbol>
    <inkscape:perspective
       id="perspective4471"
       inkscape:persp3d-origin="372.04724 : 350.78739 : 1"
       inkscape:vp_z="744.09448 : 526.18109 : 1"
       inkscape:vp_y="0 : 1000 : 0"
       inkscape:vp_x="0 : 526.18109 : 1"
       sodipodi:type="inkscape:persp3d" />
    <inkscape:perspective
       id="perspective4668"
       inkscape:persp3d-origin="6 : 4 : 1"
       inkscape:vp_z="12 : 6 : 1"
       inkscape:vp_y="0 : 1000 : 0"
       inkscape:vp_x="0 : 6 : 1"
       sodipodi:type="inkscape:persp3d" />
  </defs>
  <g
     id="g1327">
    <path
       d="M 66.275,1.768 C 24.94,1.768 1.704,23.139 1.704,66.804 L 1.704,516.927 C 1.704,557.771 22.599,579.156 63.896,579.156 L 515.92,579.156 C 557.227,579.156 578.149,558.841 578.149,516.927 L 578.149,66.804 C 578.149,24.203 557.227,1.768 514.628,1.768 C 514.624,1.768 66.133,1.625 66.275,1.768 z "
       style="fill:#111;stroke:#eee;stroke-width:3.40799999"
       id="path1329" />
  </g>
  <g
     id="g5215"
     transform="matrix(0.83050403,0,0,0.83050403,48.195742,-7.4773849)">
    <path
       sodipodi:nodetypes="cscccccccccccc"
       id="path4356"
       d="m 198.67153,429.13471 c -27.9052,-15.73923 -44.91267,-52.53932 -32.35461,-107.5395 8.80965,-38.58338 34.48036,-86.20137 14.80642,-125.85126 23.86554,16.49562 48.67818,55.72148 73.70237,100.02462 1.72552,-47.91091 -23.1357,-79.3021 -5.26444,-144.77247 12.26268,80.9952 61.45228,86.01536 86.42474,159.68842 10.62203,-34.63889 32.71786,-46.03994 21.93521,-132.05003 108.58157,148.29018 46.69562,200.96776 25.00613,254.00987 l 7.0193,-73.70234 c -34.05505,98.44168 -61.34018,116.60289 -85.98606,138.63059 13.7744,-46.21019 19.20596,-92.4204 -8.77412,-138.63059 -6.79301,75.87173 -25.9655,60.08286 -29.83187,121.08241 -38.33494,-28.93346 -46.20823,-58.61344 -53.08324,-107.04388 -5.21553,5.66709 -14.0221,29.35386 -13.59983,56.15416 z"
       style="fill:#ffffff;fill-opacity:1;fill-rule:evenodd;stroke:none"
       inkscape:connector-curvature="0" />
    <path
       sodipodi:nodetypes="ccc"
       id="path4358"
       d="M 278.07704,75.100248 C 249.68045,190.40668 301.5257,189.3936 330.28289,257.16259 350.4538,152.66532 290.11046,176.17723 278.07704,75.100248 Z"
       style="fill:#ffffff;fill-opacity:1;fill-rule:evenodd;stroke:none"
       inkscape:connector-curvature="0" />
  </g>
  <path
     d="m 155.52918,412.4798 c -10.90923,-0.0994 -21.21124,7.19751 -23.6025,17.70188 -1.33169,5.80374 -0.45417,12.01243 2.79502,17.08077 l 103.72684,-18.32301 -78.26097,-16.14909 c -1.5665,-0.33689 -3.09992,-0.29714 -4.65839,-0.31006 z m 291.92581,0 c -1.95905,0.0596 -4.21118,0.16794 -6.52175,0.62112 l -316.14943,56.21124 c -0.82485,-0.18882 -6.35032,3.14783 -9.9379,8.3851 -3.39877,4.97889 -4.56895,10.90684 -3.41616,16.7702 2.12671,10.78264 11.91306,18.63357 23.29195,18.63357 1.43106,0 2.8969,-0.0496 4.34783,-0.31006 L 449.6289,458.13252 c 6.41989,-1.15279 11.93045,-4.69068 15.52798,-9.9379 3.37888,-4.97888 4.56894,-10.92673 3.41614,-16.77021 -2.08695,-10.66087 -7.40501,-19.35674 -21.11803,-18.94412 z m -1.24223,66.4597 -102.4846,18.01244 76.70816,15.52797 c 1.47082,0.30808 2.9466,0.58137 4.34784,0.62112 l 0.93118,0 c 11.19007,0 20.56648,-7.47827 22.98139,-18.01245 1.29193,-5.60496 0.49689,-11.19007 -2.48448,-16.14908 z"
     id="path4"
     inkscape:connector-curvature="0"
     sodipodi:nodetypes="sccccssccccsccccsccccscc"
     style="fill:#ffffff;fill-opacity:1" />
</svg>

<svg width="580" height="580" viewBox="0 0 580 580" fill="none" xmlns="http://www.w3.org/2000/svg">
<g clip-path="url(#clip0)">
<path d="M66.275 1.76799C24.94 1.76799 1.70398 23.139 1.70398 66.804V516.927C1.70398 557.771 22.599 579.156 63.896 579.156H515.92C557.227 579.156 578.149 558.841 578.149 516.927V66.804C578.149 24.203 557.227 1.76799 514.628 1.76799C514.624 1.76799 66.133 1.62499 66.275 1.76799Z" fill="#111111" stroke="#EEEEEE" stroke-width="3.408"/>
<path fill-rule="evenodd" clip-rule="evenodd" d="M213.193 348.921C190.018 335.849 175.893 305.287 186.323 259.609C193.639 227.565 214.959 188.018 198.619 155.089C218.44 168.788 239.047 201.366 259.83 238.16C261.263 198.369 240.615 172.299 255.457 117.925C265.642 185.192 306.494 189.362 327.233 250.547C336.055 221.78 354.406 212.311 345.451 140.879C435.628 264.035 384.232 307.784 366.218 351.835L372.048 290.625C343.765 372.382 321.105 387.465 300.636 405.759C312.076 367.381 316.587 329.003 293.349 290.625C287.708 353.637 271.785 340.524 268.574 391.185C236.736 367.156 230.198 342.506 224.488 302.284C220.156 306.991 212.843 326.663 213.193 348.921V348.921Z" fill="white"/>
<path fill-rule="evenodd" clip-rule="evenodd" d="M279.14 54.8937C255.556 150.656 298.614 149.815 322.497 206.097C339.249 119.312 289.134 138.839 279.14 54.8937Z" fill="white"/>
<path d="M155.529 412.48C144.62 412.38 134.318 419.677 131.927 430.182C130.595 435.985 131.473 442.194 134.722 447.262L238.449 428.939L160.188 412.79C158.621 412.453 157.088 412.493 155.529 412.48V412.48ZM447.455 412.48C445.496 412.539 443.244 412.648 440.933 413.101L124.784 469.312C123.959 469.123 118.434 472.46 114.846 477.697C111.447 482.676 110.277 488.604 111.43 494.467C113.556 505.25 123.343 513.101 134.722 513.101C136.153 513.101 137.619 513.051 139.07 512.791L449.629 458.133C456.049 456.98 461.559 453.442 465.157 448.195C468.536 443.216 469.726 437.268 468.573 431.424C466.486 420.764 461.168 412.068 447.455 412.48V412.48ZM446.213 478.94L343.728 496.952L420.436 512.48C421.907 512.788 423.383 513.061 424.784 513.101H425.715C436.905 513.101 446.282 505.623 448.697 495.089C449.989 489.484 449.194 483.899 446.212 478.94H446.213Z" fill="white"/>
</g>
<defs>
<clipPath id="clip0">
<path d="M0 0H580V580H0V0Z" fill="white"/>
</clipPath>
</defs>
</svg>
